X:11352
T:Mrs.Grey's Reel. WM.108
M:C
L:1/8
Q:160
S:Wm,Mittell,1799
R:Reel
O:England
A:Kent
N:
D:
H:
Z:vmp.Chris Partington
W:
K:D
dfdf a>bag|edef bee2|dfdf abfb|afef d/d/dd2:|!
|:A>BAF f>gfd|bafd efb2|adfd Bdgb|afef d/d/dd2:|]
